packages/foundations/assets/icons/functional/images/layout/zoom_out_20.svg

<svg width="20" height="20" viewBox="0 0 20 20" fill="none" xmlns="http://www.w3.org/2000/svg">
<g clip-path="url(#clip0_185_1533)">
<path fill-rule="evenodd" clip-rule="evenodd" d="M9 2C12.8782 2 16 5.11699 16 9C16 10.5858 15.4619 12.0228 14.6091 13.1817L17.6954 16.2719C17.8985 16.4752 18 16.7395 18 16.9835C18 17.5527 17.533 18 17.0254 18C16.7614 18 16.4875 17.929 16.2741 17.7153L13.1878 14.6252C12.0102 15.4587 10.5635 16 9 16C5.14213 16 2 12.8628 2 9C2 5.11699 5.14213 2 9 2ZM8.99364 4.01267C6.22871 4.01267 4.03304 6.22874 4.03304 8.99361C4.03304 11.7586 6.22871 13.9949 8.99364 13.9949C11.7586 13.9949 14.0152 11.7586 14.0152 8.99361C14.0152 6.22874 11.7586 4.01267 8.99364 4.01267ZM12 8V10H6V8H12Z" fill="#1A1C1F"/>
</g>
<defs>
<clipPath id="clip0_185_1533">
<rect width="20" height="20" fill="white"/>
</clipPath>
</defs>
</svg>

<svg xmlns="http://www.w3.org/2000/svg" width="20" height="20" fill="none"><g clip-path="url(#a)"><path fill="#1A1C1F" fill-rule="evenodd" d="M9 2c3.878 0 7 3.117 7 7a7.03 7.03 0 0 1-1.39 4.182l3.085 3.09c.203.203.305.468.305.712 0 .569-.467 1.016-.975 1.016-.264 0-.537-.071-.75-.285l-3.087-3.09C12.01 15.46 10.563 16 9 16c-3.858 0-7-3.137-7-7 0-3.883 3.142-7 7-7m-.006 2.013c-2.765 0-4.961 2.216-4.961 4.98 0 2.766 2.196 5.002 4.96 5.002 2.766 0 5.022-2.236 5.022-5.001S11.76 4.013 8.994 4.013M12 8v2H6V8z" clip-rule="evenodd"/></g><defs><clipPath id="a"><path fill="#fff" d="M0 0h20v20H0z"/></clipPath></defs></svg>
